X: 23634
T: Lime Hill
R: strathspey
M: 4/4
K: Amajor
a|e<cc>B A<FF>A|E<CE>F A2 A>B|c>Bc>e f>ef<a|e<cc>A B2 B<a|
e<cc>B A<FF>A|E<CE>F A2 A>B|c>Bc>e f>ef>a|e<cB<c A2 A||
d|c<ee>f e<ca>e|c<ee>f e2 g<a|c<ff>a f>e a/g/f/e/|c<ff>g f2 (3fga|
c<ee>f e<ca>e|c<ee>f e2 (3efg|(3agf (3edc (3dfd (3cec|B<EG>B A2 A||

